en/_assets/data-transfer/icons/mysql-icon.svg

<svg width="32" height="32" viewBox="0 0 32 32" fill="none" xmlns="http://www.w3.org/2000/svg">
<path d="M29.4559 24.4155C27.7161 24.3728 26.3677 24.5442 25.2368 25.0149C24.9106 25.1433 24.3886 25.1434 24.3451 25.55C24.5192 25.7213 24.5409 25.9995 24.6931 26.2349C24.9543 26.6628 25.4108 27.2408 25.824 27.5405C26.2807 27.8829 26.7375 28.2252 27.2158 28.5249C28.064 29.0386 29.0209 29.3382 29.8473 29.8519C30.3259 30.1513 30.8041 30.5368 31.2826 30.8578C31.5219 31.0289 31.674 31.3072 31.9786 31.4142V31.3501C31.8263 31.1574 31.7828 30.8792 31.6307 30.6652C31.4133 30.4511 31.1957 30.2585 30.9782 30.0444C30.3475 29.2098 29.5646 28.4821 28.7164 27.8829C28.0206 27.412 26.4982 26.7699 26.2155 25.978C26.2155 25.978 26.1936 25.9567 26.1719 25.9353C26.6504 25.8925 27.2158 25.7213 27.6726 25.5928C28.4121 25.4001 29.0862 25.4429 29.8473 25.2504C30.1952 25.1647 30.5433 25.0577 30.8912 24.9507V24.7582C30.4999 24.3728 30.2171 23.8593 29.8038 23.4954C28.6947 22.5535 27.4768 21.6334 26.2155 20.8629C25.5412 20.4349 24.6713 20.1565 23.9537 19.7928C23.6928 19.6642 23.2577 19.6001 23.1056 19.3861C22.714 18.9152 22.4966 18.2946 22.2139 17.7381C21.5834 16.5608 20.9742 15.2555 20.4305 14.0142C20.0393 13.1794 19.8 12.3447 19.3215 11.5743C17.0815 7.93586 14.6458 5.73144 10.9052 3.56973C10.1005 3.12033 9.14367 2.92766 8.1215 2.69229C7.57795 2.6708 7.03413 2.62811 6.49043 2.60662C6.14253 2.45678 5.79449 2.05022 5.48996 1.85754C4.2506 1.08698 1.05355 -0.582245 0.140127 1.62217C-0.447084 3.01333 1.01003 4.38299 1.51019 5.08937C1.88006 5.5816 2.3584 6.138 2.6194 6.69455C2.77166 7.05815 2.81504 7.44363 2.9673 7.82885C3.31534 8.77033 3.64142 9.81923 4.0982 10.6968C4.33751 11.1462 4.59837 11.6171 4.90289 12.0237C5.07684 12.259 5.38122 12.3662 5.44657 12.7514C5.14219 13.1794 5.12036 13.8215 4.94627 14.3566C4.16341 16.775 4.46793 19.7713 5.577 21.5477C5.92491 22.0826 6.75142 23.26 7.8605 22.8105C8.83914 22.4253 8.62166 21.2053 8.90435 20.1352C8.96971 19.8782 8.92618 19.7071 9.05661 19.5359C9.05673 19.5573 9.05661 19.5788 9.05661 19.5788C9.36113 20.178 9.66552 20.7559 9.94821 21.3551C10.6225 22.4038 11.7968 23.4954 12.7754 24.2231C13.2975 24.6082 13.7106 25.2717 14.3631 25.5073V25.4429H14.3195C14.189 25.2503 13.9933 25.1647 13.8194 25.0149C13.4279 24.6297 12.9929 24.1588 12.6885 23.7308C11.7752 22.5321 10.9704 21.2053 10.2527 19.8355C9.90482 19.1721 9.6003 18.4443 9.31761 17.7809C9.18704 17.5239 9.18704 17.1389 8.96957 17.0105C8.64335 17.4812 8.16502 17.8879 7.92571 18.4658C7.51273 19.3861 7.46907 20.5204 7.31681 21.6975C7.2299 21.719 7.27329 21.6975 7.22976 21.7404C6.53395 21.569 6.29465 20.8629 6.03364 20.2635C5.38122 18.744 5.27248 16.3041 5.838 14.5492C5.99026 14.0997 6.64269 12.6872 6.38169 12.2592C6.25126 11.8525 5.81617 11.6171 5.577 11.2961C5.29431 10.8894 4.98979 10.3758 4.79415 9.92625C4.27215 8.72777 4.01115 7.40081 3.44577 6.20219C3.18478 5.64565 2.72813 5.06789 2.3584 4.55432C1.94528 3.97643 1.4885 3.56973 1.16228 2.88482C1.05368 2.64945 0.901281 2.26424 1.07523 2.00738C1.11876 1.83619 1.20566 1.77201 1.37975 1.72918C1.66244 1.49367 2.46713 1.79336 2.74982 1.92172C3.5545 2.24262 4.22862 2.54244 4.90288 2.99184C5.20726 3.20586 5.53347 3.61256 5.9249 3.71957H6.38168C7.07763 3.86928 7.86049 3.7624 8.51291 3.95494C9.66564 4.31867 10.7094 4.85387 11.6446 5.43176C14.4936 7.20812 16.8422 9.7337 18.4299 12.7514C18.6909 13.2435 18.7995 13.6931 19.0388 14.2067C19.4956 15.2555 20.0609 16.3256 20.5176 17.3529C20.9742 18.3587 21.4092 19.3861 22.0616 20.2209C22.388 20.6701 23.6927 20.9056 24.2799 21.1411C24.7148 21.3337 25.3891 21.505 25.7805 21.7404C26.5198 22.1896 27.2593 22.7035 27.9553 23.1957C28.3033 23.4524 29.3905 23.9876 29.4559 24.4155L29.4559 24.4155Z" fill="#00546B"/>
</svg>

<svg xmlns="http://www.w3.org/2000/svg" width="32" height="32" fill="none"><path fill="#00546B" d="M29.456 24.416c-1.74-.043-3.088.128-4.22.599-.325.128-.847.128-.89.535.173.171.195.45.347.685.261.428.718 1.006 1.131 1.306.457.342.913.684 1.392.984.848.514 1.805.813 2.631 1.327.479.3.957.685 1.436 1.006.239.17.391.45.696.556v-.064c-.153-.193-.196-.47-.348-.685-.218-.214-.435-.406-.653-.62a10.241 10.241 0 0 0-2.262-2.162c-.695-.471-2.218-1.113-2.5-1.905l-.044-.043c.478-.043 1.044-.214 1.5-.342.74-.193 1.414-.15 2.175-.343.348-.085.696-.192 1.044-.3v-.192c-.391-.385-.674-.899-1.087-1.263-1.11-.942-2.327-1.862-3.588-2.632-.675-.428-1.545-.706-2.262-1.07-.261-.129-.696-.193-.848-.407-.392-.47-.61-1.091-.892-1.648a53.665 53.665 0 0 1-1.784-3.724c-.39-.835-.63-1.67-1.108-2.44-2.24-3.638-4.676-5.843-8.417-8.004-.804-.45-1.761-.642-2.784-.878-.543-.021-1.087-.064-1.63-.085-.348-.15-.697-.557-1.001-.75-1.24-.77-4.436-2.44-5.35-.235-.587 1.391.87 2.761 1.37 3.467.37.493.848 1.049 1.11 1.606.152.363.195.749.347 1.134.348.941.674 1.99 1.131 2.868.24.45.5.92.805 1.327.174.235.478.342.544.727-.305.428-.327 1.07-.5 1.606-.784 2.418-.48 5.414.63 7.19.348.536 1.174 1.713 2.284 1.264.978-.386.76-1.606 1.043-2.676.066-.257.022-.428.153-.6v.044c.304.599.609 1.177.891 1.776.675 1.049 1.849 2.14 2.827 2.868.522.385.936 1.049 1.588 1.284v-.064h-.043c-.131-.193-.327-.278-.5-.428-.392-.385-.827-.856-1.132-1.284-.913-1.199-1.718-2.526-2.435-3.896-.348-.663-.653-1.39-.935-2.054-.131-.257-.131-.642-.348-.77-.327.47-.805.877-1.044 1.455-.413.92-.457 2.054-.61 3.232-.086.021-.043 0-.086.042-.696-.171-.935-.877-1.196-1.476-.653-1.52-.762-3.96-.196-5.715.152-.45.805-1.862.544-2.29-.13-.407-.566-.642-.805-.963a8.587 8.587 0 0 1-.783-1.37c-.522-1.198-.783-2.525-1.348-3.724-.261-.556-.718-1.134-1.088-1.648-.413-.578-.87-.984-1.196-1.67-.108-.235-.26-.62-.087-.877.044-.17.13-.235.305-.278.282-.235 1.087.064 1.37.193.804.32 1.479.62 2.153 1.07.304.214.63.62 1.022.728h.457c.696.15 1.478.042 2.13.235 1.154.364 2.197.899 3.133 1.477a19.103 19.103 0 0 1 6.785 7.32c.26.491.37.941.609 1.455.457 1.048 1.022 2.119 1.479 3.146.456 1.006.891 2.033 1.544 2.868.326.45 1.63.685 2.218.92.435.193 1.11.364 1.5.6.74.449 1.48.962 2.175 1.455.348.256 1.436.792 1.5 1.22Z"/></svg>
